X:5
S:Jeff Davis
K:Ador
M:4/4
L:1/8
BA | GE ED E3 D | A,D D^C D=C CA, | EF GA (3(BcB) AB | GE ED E2 BA |
GE ED E3 D | A,D D^C D=C CA, | EF GA (3(BcB) AB | GE ED E2 d2 |
(3(BcB) Ac BA GE | DA AG AF ED | EF GA (3(BcB) AB | GE ED E2 BA |
GE ED E3 D | A,D D^C D=C CA, | EF GA (3(BcB) AB | GE ED E2 :|
